X:1
T:Genevan Psalm XII, 11.10.11.10
T:Genevan Psalm XII, 11.10.11.10
T:Louis Bourgeois, 1561
T:Public Domain Courtesy of the Cyber Hymnal™
C:Louis Bourgeois, 1561
Z:Public Domain
Z:Courtesy of the Cyber Hymnal™
%%score ( 1 2 ) ( 3 4 )
L:1/8
Q:1/4=117
M:none
K:C
V:1 treble 
V:2 treble 
V:3 bass 
V:4 bass 
V:1
 [DA]4 [DF]2 [EG]2 | [FA]4 [Cc]4 | [CA]2 [DF]2 G2 z x3 | E4 D4 | [DA]4 [CA]2 [CG]2 | [FA]4 [Fd]4 | %6
 [EA]2 [Dd]2 [Ec]2 [EB]2 | [CA]8 | [_B,D]4 [CF]2 [CF]2 | [CE]4 [A,D]4 | [A,A]2 [DA]2 [EG]2 [^CE]2 | %11
 F4 [^CE]4 | [^CA]4 [C^c]2 [CA]2 | [DF]2 [EG]2 [EA]2 D2 | [DF]4 [^CE]4 | D8 |] %16
V:2
 x8 | x8 | x4 E3 (F2 E) | (D2 ^C2) D4 | x8 | x8 | x8 | x8 | x8 | x8 | x8 | (A,2 B,2) x4 | x8 | %13
 x6 D2 | x8 | D8 |] %16
V:3
 [D,F,]4 [D,A,]2 [C,C]2 | [F,C]4 [E,G,]4 | [F,A,]2 [D,A,]2 [G,_B,]2 [D,A,]2 x2 | [A,,A,]4 [D,F,]4 | %4
 [D,F,]4 [F,A,]2 [E,C]2 | [D,A,]4 [D,B,]4 | [C,C]2 [F,A,]2 A,2 [E,^G,]2 | [A,,A,]8 | %8
 [_B,,F,]4 [F,,A,]2 [A,,A,]2 | [C,G,]4 [D,F,]4 | [C,E,]2 [F,,F,]2 [G,,_B,]2 [A,,A,]2 | %11
 [D,A,]4 [A,,A,]4 | [F,A,]4 [E,G,]2 F,2 | [D,A,]2 [C,C]2 [A,,C]2 [_B,,F,]2 | A,4 [A,,A,]4 | %15
 [D,F,]8 |] %16
V:4
 x8 | x8 | x10 | x8 | x8 | x8 | x4 (C,D,) x2 | x8 | x8 | x8 | x8 | x8 | x6 F,2 | x8 | %14
 (F,,2 G,,2) x4 | x8 |] %16

